icon/lg/codebase.svg

<?xml version="1.0" encoding="UTF-8" standalone="no"?>
<svg viewBox="0 0 512 93" version="1.1" xmlns="http://www.w3.org/2000/svg" xmlns:xlink="http://www.w3.org/1999/xlink" preserveAspectRatio="xMidYMid" height="1em" width="1em">
  <g fill="#1B6DB2">
    <path d="M456.119668,54.6038781 L503.915789,54.6038781 C503.773961,48.2216066 501.788366,42.5484765 497.533518,37.300831 C493.420499,32.0531856 487.60554,29.500277 479.946814,29.500277 C472.713573,29.500277 467.040443,32.0531856 462.785596,37.1590028 C458.672576,42.4066482 456.403324,48.2216066 456.119668,54.6038781 L456.119668,54.6038781 Z M448.60277,57.865928 C448.60277,48.2216066 451.581163,40.1373961 457.53795,33.4714681 C463.494737,26.8055402 471.011634,23.401662 480.088643,23.401662 C489.732964,23.401662 497.249861,26.6637119 502.781163,33.3296399 C508.312465,39.9955679 511.14903,48.2216066 511.14903,58.2914127 L511.14903,60.1351801 L456.119668,60.1351801 C456.403324,67.6520776 458.956233,73.7506925 463.636565,78.7146814 C468.316898,83.6786704 474.415512,86.2315789 481.93241,86.2315789 C490.725762,86.2315789 497.817175,83.2531856 503.490305,77.1545706 L507.177839,81.834903 C500.370083,88.9263158 491.71856,92.4720222 481.506925,92.4720222 C471.862604,92.4720222 464.06205,89.2099723 457.963435,82.8277008 C451.86482,76.4454294 448.60277,68.0775623 448.60277,57.865928 L448.60277,57.865928 Z M126.79446,57.865928 C126.79446,62.6880886 128.212742,66.5174515 130.907479,69.4958449 C133.602216,72.4742382 137.147922,73.8925208 141.260942,73.8925208 C143.530194,73.8925208 145.799446,73.3252078 148.210526,72.1905817 C150.621607,71.0559557 152.465374,69.6376731 153.883657,67.9357341 L153.883657,47.7961219 C152.465374,46.0941828 150.621607,44.6759003 148.210526,43.5412742 C145.799446,42.4066482 143.530194,41.9811634 141.260942,41.9811634 C137.006094,41.9811634 133.602216,43.399446 130.907479,46.3778393 C128.070914,49.2144044 126.79446,53.0437673 126.79446,57.865928 L126.79446,57.865928 Z M391.020499,81.9767313 L395.275346,76.7290859 C397.544598,79.565651 400.522992,81.834903 404.210526,83.6786704 C407.898061,85.5224377 412.01108,86.3734072 416.549584,86.3734072 C421.939058,86.3734072 426.193906,85.0969529 429.314127,82.6858726 C432.434349,80.132964 434.136288,77.0127424 434.136288,73.0415512 C434.136288,69.7795014 432.718006,67.2265928 429.88144,65.2409972 C427.044875,63.3972299 423.640997,61.8371191 419.527978,60.9861496 C415.556787,59.9933518 411.443767,59.000554 407.330748,57.865928 C403.217729,56.7313019 399.81385,54.8875346 396.835457,52.1927978 C393.998892,49.4980609 392.580609,45.9523546 392.580609,41.6975069 C392.580609,36.4498615 394.708033,32.1950139 398.962881,28.6493075 C403.217729,25.1036011 408.890859,23.401662 416.1241,23.401662 C426.052078,23.401662 433.852632,26.6637119 439.66759,33.0459834 L435.696399,38.0099723 C431.441551,32.1950139 424.917452,29.3584488 416.1241,29.3584488 C411.160111,29.3584488 407.18892,30.4930748 404.210526,32.7623269 C401.232133,35.0315789 399.81385,37.868144 399.81385,41.4138504 C399.81385,44.3922438 401.232133,46.8033241 404.068698,48.5052632 C406.905263,50.2072022 410.309141,51.4836565 414.422161,52.4764543 C418.393352,53.4692521 422.506371,54.4620499 426.477562,55.5966759 C430.448753,56.7313019 433.99446,58.8587258 436.831025,61.6952909 C439.66759,64.531856 441.085873,68.3612188 441.085873,73.0415512 C441.085873,78.7146814 438.958449,83.2531856 434.703601,86.9407202 C430.448753,90.6282548 424.350139,92.3301939 416.549584,92.3301939 C405.628809,92.4720222 397.260942,88.9263158 391.020499,81.9767313 L391.020499,81.9767313 Z M204.374515,50.4908587 L231.463712,50.4908587 C231.180055,47.7961219 229.903601,45.3850416 227.634349,43.399446 C225.506925,41.2720222 222.244875,40.2792244 217.848199,40.2792244 C213.73518,40.2792244 210.47313,41.2720222 208.345706,43.2576177 C206.076454,45.3850416 204.8,47.7961219 204.374515,50.4908587 L204.374515,50.4908587 Z M336.842105,70.6304709 C336.842105,75.3108033 338.544044,79.2819945 341.806094,82.2603878 C345.068144,85.2387812 349.46482,86.798892 354.854294,86.798892 C363.505817,86.798892 370.171745,83.8204986 374.710249,77.7218837 L374.710249,63.3972299 C370.171745,57.298615 363.505817,54.3202216 354.854294,54.3202216 C349.46482,54.3202216 345.209972,55.8803324 341.806094,59.000554 C338.544044,61.9789474 336.842105,65.9501385 336.842105,70.6304709 L336.842105,70.6304709 Z M10.0698061,33.0459834 C16.8775623,26.6637119 25.3872576,23.401662 35.7407202,23.401662 C42.2648199,23.401662 47.7961219,24.5362881 52.334626,26.9473684 C56.8731302,29.3584488 60.2770083,32.1950139 62.5462604,35.598892 L49.2144044,48.2216066 C46.3778393,44.1085873 42.2648199,41.9811634 36.733518,41.9811634 C32.3368421,41.9811634 28.6493075,43.399446 25.6709141,46.2360111 C22.834349,49.0725762 21.2742382,52.9019391 21.2742382,57.865928 C21.2742382,62.8299169 22.6925208,66.6592798 25.6709141,69.4958449 C28.5074792,72.33241 32.1950139,73.8925208 36.733518,73.8925208 C41.9811634,73.8925208 46.0941828,71.765097 49.2144044,67.5102493 L62.8299169,80.2747922 C60.5606648,83.6786704 57.1567867,86.5152355 52.6182825,88.9263158 C48.0797784,91.3373961 42.5484765,92.4720222 36.0243767,92.4720222 C25.6709141,92.4720222 17.1612188,89.2099723 10.3534626,82.8277008 C3.40387812,76.3036011 0,68.0775623 0,57.865928 C0,47.6542936 3.40387812,39.4282548 10.0698061,33.0459834 L10.0698061,33.0459834 Z M329.467036,70.4886427 C329.467036,63.6808864 331.736288,58.2914127 336.274792,54.4620499 C340.813296,50.632687 346.20277,48.6470914 352.443213,48.6470914 C361.66205,48.6470914 369.178947,51.767313 374.852078,58.0077562 L374.852078,44.6759003 C374.852078,39.9955679 373.150139,36.3080332 369.888089,33.6132964 C366.626039,30.9185596 362.371191,29.500277 357.265374,29.500277 C349.039335,29.500277 342.231579,32.7623269 336.558449,39.1445983 L332.587258,34.1806094 C339.395014,26.8055402 347.904709,23.1180055 357.974515,23.1180055 C365.065928,23.1180055 370.880886,24.8199446 375.277562,28.5074792 C379.674238,32.0531856 381.94349,37.300831 381.94349,44.3922438 L381.94349,90.7700831 L374.852078,90.7700831 L374.852078,82.9695291 C369.178947,89.2099723 361.66205,92.3301939 352.443213,92.4720222 C346.344598,92.4720222 340.955125,90.4864266 336.41662,86.5152355 C331.736288,82.5440443 329.467036,77.2963989 329.467036,70.4886427 L329.467036,70.4886427 Z M191.326316,33.3296399 C197.850416,26.6637119 206.218283,23.401662 216.288089,23.401662 C226.216066,23.401662 234.300277,26.8055402 240.54072,33.4714681 C246.781163,40.1373961 249.901385,49.0725762 249.901385,60.1351801 L249.901385,64.9573407 L203.098061,64.9573407 C203.94903,68.2193906 205.65097,70.7722992 208.487535,72.7578947 C211.3241,74.7434903 215.011634,75.7362881 219.550139,75.7362881 C222.103047,75.7362881 224.939612,75.1689751 228.059834,74.1761773 C231.180055,73.1833795 233.732964,71.765097 235.576731,70.2049861 L244.795568,83.9623269 C241.675346,86.798892 237.562327,88.9263158 232.598338,90.3445983 C227.634349,91.9047091 222.528532,92.6138504 217.280886,92.6138504 C206.927424,92.6138504 198.417729,89.4936288 191.609972,83.1113573 C184.802216,76.7290859 181.398338,68.3612188 181.398338,58.0077562 C181.540166,48.0797784 184.802216,39.9955679 191.326316,33.3296399 L191.326316,33.3296399 Z M269.331856,74.3180055 C271.317452,77.5800554 274.295845,80.4166205 278.408864,82.6858726 C282.380055,84.9551247 286.634903,86.0897507 291.031579,86.0897507 C298.26482,86.0897507 303.796122,83.3950139 307.909141,78.1473684 C312.022161,72.899723 314.007756,66.233795 314.007756,58.0077562 C314.007756,49.7817175 312.022161,42.9739612 307.909141,37.7263158 C303.796122,32.4786704 298.26482,29.7839335 291.031579,29.7839335 C286.634903,29.7839335 282.521884,30.9185596 278.408864,33.3296399 C274.295845,35.7407202 271.317452,38.5772853 269.331856,41.8393352 L269.331856,74.3180055 L269.331856,74.3180055 Z M113.462604,32.7623269 C118.852078,26.5218837 125.801662,23.401662 134.311357,23.401662 C142.25374,23.401662 148.777839,26.5218837 153.741828,32.9041551 L153.741828,0 L174.590582,0 L174.590582,90.7700831 L153.741828,90.7700831 L153.741828,83.1113573 C148.352355,89.2099723 141.828255,92.3301939 134.311357,92.4720222 C125.94349,92.4720222 118.993906,89.3518006 113.462604,83.2531856 C110.626039,79.9911357 108.498615,76.1617729 107.080332,71.6232687 L121.12133,57.5822715 L121.12133,56.4476454 L107.647645,42.832133 C109.065928,39.0027701 110.909695,35.598892 113.462604,32.7623269 L113.462604,32.7623269 Z M262.382271,90.7700831 L262.382271,0 L269.473684,0 L269.473684,35.7407202 C275.288643,27.5146814 282.947368,23.5434903 292.308033,23.401662 C301.101385,23.401662 308.192798,26.5218837 313.582271,32.9041551 C318.971745,39.2864266 321.666482,47.6542936 321.666482,58.0077562 C321.666482,68.3612188 318.971745,76.7290859 313.582271,83.1113573 C308.192798,89.3518006 301.101385,92.4720222 292.308033,92.4720222 C287.627701,92.4720222 283.231025,91.3373961 279.259834,89.068144 C275.288643,86.798892 272.026593,83.8204986 269.473684,80.2747922 L269.473684,90.7700831 L262.382271,90.7700831 L262.382271,90.7700831 Z"/>
    <path d="M82.2603878,80.132964 L76.4454294,86.2315789 L48.3634349,57.5822715 L48.3634349,56.4476454 L76.5872576,27.6565097 L82.4022161,33.7551247 L88.6426593,27.6565097 L117.00831,56.4476454 L117.00831,57.5822715 L88.6426593,86.2315789 L82.2603878,80.132964 L82.2603878,80.132964 Z M82.6858726,43.5412742 L69.0703601,57.0149584 L82.8277008,70.3468144 L95.8759003,57.0149584 L82.6858726,43.5412742 L82.6858726,43.5412742 Z"/>
  </g>
</svg>

<svg width="512" height="93" xmlns="http://www.w3.org/2000/svg" preserveAspectRatio="xMidYMid"><g fill="#1B6DB2"><path d="M456.12 54.604h47.796c-.142-6.382-2.128-12.056-6.382-17.303-4.114-5.248-9.928-7.8-17.587-7.8-7.233 0-12.907 2.552-17.161 7.658-4.113 5.248-6.383 11.063-6.666 17.445Zm-7.517 3.262c0-9.644 2.978-17.729 8.935-24.395 5.957-6.665 13.474-10.07 22.55-10.07 9.645 0 17.162 3.263 22.693 9.929 5.531 6.666 8.368 14.892 8.368 24.961v1.844h-55.03c.284 7.517 2.837 13.616 7.518 18.58 4.68 4.964 10.779 7.517 18.295 7.517 8.794 0 15.885-2.979 21.558-9.077l3.688 4.68c-6.808 7.091-15.46 10.637-25.671 10.637-9.644 0-17.445-3.262-23.544-9.644-6.098-6.383-9.36-14.75-9.36-24.962Zm-321.809 0c0 4.822 1.419 8.651 4.113 11.63 2.695 2.978 6.24 4.397 10.354 4.397 2.27 0 4.538-.568 6.95-1.702 2.41-1.135 4.254-2.553 5.673-4.255v-20.14c-1.419-1.702-3.262-3.12-5.673-4.255-2.412-1.134-4.68-1.56-6.95-1.56-4.255 0-7.659 1.418-10.354 4.397-2.836 2.836-4.113 6.666-4.113 11.488Zm264.226 24.11 4.255-5.247c2.27 2.837 5.248 5.106 8.936 6.95 3.687 1.843 7.8 2.694 12.339 2.694 5.39 0 9.644-1.276 12.764-3.687 3.12-2.553 4.822-5.673 4.822-9.644 0-3.262-1.418-5.815-4.255-7.801a29.937 29.937 0 0 0-10.353-4.255c-3.971-.993-8.084-1.985-12.197-3.12-4.113-1.135-7.517-2.978-10.496-5.673-2.836-2.695-4.254-6.24-4.254-10.495 0-5.248 2.127-9.503 6.382-13.049 4.255-3.545 9.928-5.247 17.161-5.247 9.928 0 17.729 3.262 23.544 9.644l-3.972 4.964c-4.254-5.815-10.779-8.652-19.572-8.652-4.964 0-8.935 1.135-11.913 3.404-2.979 2.27-4.397 5.106-4.397 8.652 0 2.978 1.418 5.39 4.255 7.091 2.836 1.702 6.24 2.979 10.353 3.971 3.971.993 8.084 1.986 12.056 3.12a23.948 23.948 0 0 1 10.353 6.1c2.837 2.836 4.255 6.665 4.255 11.346 0 5.673-2.128 10.211-6.382 13.899-4.255 3.687-10.354 5.39-18.154 5.39-10.921.141-19.29-3.405-25.53-10.354ZM204.375 50.492h27.089c-.284-2.695-1.56-5.106-3.83-7.092-2.127-2.127-5.39-3.12-9.786-3.12-4.113 0-7.375.993-9.502 2.979-2.27 2.127-3.546 4.538-3.971 7.233Zm132.467 20.14c0 4.68 1.702 8.651 4.964 11.63 3.262 2.978 7.659 4.538 13.048 4.538 8.652 0 15.318-2.979 19.856-9.077V63.397c-4.538-6.098-11.204-9.077-19.856-9.077-5.39 0-9.644 1.56-13.048 4.68-3.262 2.979-4.964 6.95-4.964 11.63ZM10.07 33.045c6.808-6.382 15.317-9.644 25.67-9.644 6.525 0 12.056 1.134 16.595 3.545 4.538 2.411 7.942 5.248 10.211 8.652L49.214 48.222c-2.836-4.113-6.95-6.24-12.48-6.24-4.397 0-8.085 1.417-11.063 4.254-2.837 2.837-4.397 6.666-4.397 11.63s1.419 8.793 4.397 11.63c2.836 2.836 6.524 4.397 11.063 4.397 5.247 0 9.36-2.128 12.48-6.383L62.83 80.275c-2.27 3.404-5.673 6.24-10.212 8.651-4.538 2.411-10.07 3.546-16.594 3.546-10.353 0-18.863-3.262-25.67-9.644C3.403 76.304 0 68.078 0 57.866s3.404-18.438 10.07-24.82Zm319.397 37.443c0-6.808 2.27-12.198 6.808-16.027 4.538-3.83 9.928-5.815 16.168-5.815 9.22 0 16.736 3.12 22.41 9.36V44.677c0-4.68-1.703-8.368-4.965-11.063-3.262-2.694-7.517-4.113-12.623-4.113-8.226 0-15.033 3.262-20.707 9.645l-3.97-4.964c6.807-7.375 15.317-11.063 25.387-11.063 7.09 0 12.906 1.702 17.303 5.39 4.396 3.545 6.665 8.793 6.665 15.884V90.77h-7.09v-7.8c-5.674 6.24-13.19 9.36-22.41 9.502-6.098 0-11.488-1.986-16.026-5.957-4.68-3.971-6.95-9.219-6.95-16.026Zm-138.14-37.16c6.523-6.665 14.891-9.927 24.961-9.927 9.928 0 18.012 3.404 24.253 10.07 6.24 6.665 9.36 15.6 9.36 26.663v4.822h-46.803c.851 3.262 2.553 5.815 5.39 7.8 2.836 1.986 6.524 2.98 11.062 2.98 2.553 0 5.39-.568 8.51-1.56 3.12-.994 5.673-2.412 7.517-3.972l9.219 13.757c-3.12 2.837-7.234 4.964-12.198 6.383-4.964 1.56-10.07 2.269-15.317 2.269-10.354 0-18.863-3.12-25.671-9.503-6.808-6.382-10.212-14.75-10.212-25.103.142-9.928 3.404-18.012 9.928-24.678Zm78.005 40.989c1.985 3.262 4.964 6.099 9.077 8.368 3.971 2.27 8.226 3.404 12.623 3.404 7.233 0 12.764-2.695 16.877-7.943 4.113-5.247 6.099-11.913 6.099-20.14 0-8.225-1.986-15.033-6.099-20.28-4.113-5.248-9.644-7.943-16.877-7.943-4.397 0-8.51 1.135-12.623 3.546-4.113 2.41-7.092 5.247-9.077 8.51v32.478Zm-155.87-41.556c5.39-6.24 12.34-9.36 20.85-9.36 7.942 0 14.466 3.12 19.43 9.502V0h20.849v90.77h-20.85v-7.659c-5.389 6.099-11.913 9.22-19.43 9.361-8.368 0-15.317-3.12-20.848-9.219-2.837-3.262-4.964-7.091-6.383-11.63l14.041-14.04v-1.135l-13.473-13.616c1.418-3.83 3.262-7.233 5.815-10.07Zm148.92 58.008V0h7.092v35.74c5.815-8.225 13.473-12.197 22.834-12.338 8.793 0 15.885 3.12 21.274 9.502 5.39 6.382 8.084 14.75 8.084 25.104 0 10.353-2.694 18.721-8.084 25.103-5.39 6.24-12.48 9.361-21.274 9.361-4.68 0-9.077-1.135-13.048-3.404a30.76 30.76 0 0 1-9.786-8.793V90.77h-7.092Z"/><path d="m82.26 80.133-5.815 6.099-28.082-28.65v-1.134l28.224-28.791 5.815 6.098 6.24-6.098 28.366 28.79v1.135l-28.365 28.65-6.383-6.099Zm.426-36.592L69.07 57.015l13.758 13.332 13.048-13.332-13.19-13.474Z"/></g></svg>
